img/loader.svg

<svg width="100" height="100" viewBox="0 0 100 100" fill="none" xmlns="http://www.w3.org/2000/svg">
<path d="M35.4785 67L38.694 59.7869H57.0892L60.41 67H68L49.7627 27L32 67H35.4785ZM47.7598 39.2952L55.8768 57.0548H39.9063L47.7598 39.2952Z" fill="#46CBE3"/>
<path d="M50 2C50 0.895431 50.8959 -0.00417567 51.9996 0.0399906C60.5241 0.381117 68.8319 2.89879 76.1249 7.36799C83.9872 12.186 90.364 19.0844 94.5503 27.3005C98.7366 35.5165 100.569 44.7303 99.8459 53.923C99.1224 63.1156 95.8709 71.9292 90.4509 79.3893C85.0308 86.8493 77.6534 92.6652 69.1342 96.194C60.615 99.7227 51.2859 100.827 42.1783 99.3844C33.0707 97.9419 24.5394 94.0089 17.5276 88.0203C11.0235 82.4652 6.06177 75.3421 3.10312 67.3402C2.72005 66.3042 3.29878 65.1741 4.34929 64.8328C5.3998 64.4915 6.52396 65.0683 6.91062 66.103C9.63894 73.4038 14.1822 79.9027 20.1254 84.9787C26.5762 90.4882 34.425 94.1066 42.804 95.4337C51.183 96.7608 59.7658 95.7449 67.6034 92.4985C75.4411 89.252 82.2283 83.9014 87.2148 77.0381C92.2012 70.1749 95.1926 62.0664 95.8582 53.6091C96.5238 45.1518 94.8377 36.6752 90.9863 29.1164C87.1349 21.5576 81.2682 15.2111 74.0349 10.7786C67.3709 6.69483 59.786 4.38219 51.9995 4.04347C50.896 3.99546 50 3.10457 50 2Z" fill="url(#paint0_linear_230_2575)"/>
<defs>
<linearGradient id="paint0_linear_230_2575" x1="54" y1="-4.5" x2="-13" y2="75.5" gradientUnits="userSpaceOnUse">
<stop stop-color="#46CBE3"/>
<stop offset="1" stop-color="#46CBE3" stop-opacity="0"/>
</linearGradient>
</defs>
</svg>

<svg width="100" height="100" fill="none" xmlns="http://www.w3.org/2000/svg"><path d="M35.478 67l3.216-7.213h18.395L60.41 67H68L49.763 27 32 67h3.478zM47.76 39.295l8.117 17.76h-15.97l7.853-17.76z" fill="#46CBE3"/><path d="M50 2c0-1.105.896-2.004 2-1.96a50 50 0 11-48.897 67.3c-.383-1.036.196-2.166 1.246-2.507 1.05-.341 2.175.235 2.562 1.27a46 46 0 1045.088-62.06C50.896 3.995 50 3.105 50 2z" fill="url(#paint0_linear_230_2575)"/><defs><linearGradient id="paint0_linear_230_2575" x1="54" y1="-4.5" x2="-13" y2="75.5" gradientUnits="userSpaceOnUse"><stop stop-color="#46CBE3"/><stop offset="1" stop-color="#46CBE3" stop-opacity="0"/></linearGradient></defs></svg>
